packages/foundations/assets/icons/functional/images/devices/printer_16_filled.svg

<svg width="16" height="16" viewBox="0 0 16 16" fill="none" xmlns="http://www.w3.org/2000/svg">
<g clip-path="url(#clip0_2204_2763)">
<path fill-rule="evenodd" clip-rule="evenodd" d="M11.2 1.60001C11.6162 1.60001 12.0065 1.91139 12.0065 2.32846V3.187H13.0992C13.8276 3.187 14.4 3.78489 14.4 4.48781V9.01464C14.4 9.71708 13.8796 10.3935 13.1772 10.3935H12.0065V13.5935C12.0065 14.0098 11.6952 14.4 11.304 14.4H4.79998C4.38372 14.4 3.99347 14.0878 3.99347 13.6976V10.3935H2.90079C2.17233 10.3935 1.59998 9.79513 1.59998 9.09269V4.59188C1.59998 3.86342 2.1203 3.187 2.82274 3.187H3.99347V2.40651C3.99347 1.99025 4.30485 1.60001 4.72193 1.60001H11.2ZM10.4 8.80001H5.59998V12.8H10.4V8.80001ZM6.39998 4.80001H3.99998V6.40001H6.39998V4.80001Z" fill="#1A1C1F"/>
</g>
<defs>
<clipPath id="clip0_2204_2763">
<rect width="16" height="16" fill="white"/>
</clipPath>
</defs>
</svg>

<svg xmlns="http://www.w3.org/2000/svg" width="16" height="16" fill="none"><g clip-path="url(#a)"><path fill="#1A1C1F" fill-rule="evenodd" d="M11.2 1.6c.416 0 .807.311.807.728v.859h1.092c.729 0 1.301.598 1.301 1.3v4.528c0 .702-.52 1.378-1.223 1.378h-1.17v3.2c0 .417-.312.807-.703.807H4.8c-.416 0-.807-.312-.807-.702v-3.305H2.901c-.729 0-1.301-.598-1.301-1.3V4.592c0-.729.52-1.405 1.223-1.405h1.17v-.78c0-.417.312-.807.729-.807zm-.8 7.2H5.6v4h4.8zm-4-4H4v1.6h2.4z" clip-rule="evenodd"/></g><defs><clipPath id="a"><path fill="#fff" d="M0 0h16v16H0z"/></clipPath></defs></svg>
